; generated by Slic3r 1.3.0-dev on 2018-01-04 at 19:39:00

; external perimeters extrusion width = 0.42mm (2.56mm^3/s)
; perimeters extrusion width = 0.51mm (10.64mm^3/s)
; infill extrusion width = 0.58mm (15.42mm^3/s)
; solid infill extrusion width = 0.48mm (11.19mm^3/s)
; top infill extrusion width = 0.38mm (5.05mm^3/s)

M190 S40 ; set bed temperature and wait for it to be reached
M104 S200 ; set temperature
M117 EndstopX
G28 X
G1 X117.5 F3000
G28 Y
G28 Z; home all axes
; Filament gcode

; Filament gcode

M109 S200 ; set temperature and wait for it to be reached
G21 ; set units to millimeters
G90 ; use absolute coordinates
M82 ; use absolute distances for extrusion
G92 E0
M106 S122.4
G1 E-8.00000 F1200.00000
G92 E0
G1 Z0.320 F6000.000
M117 capa 0 en Z=0.32mm
;AFTERLIFT
G1 X107.597 Y120.208 F6000.000
G1 E8.00000 F1200.00000
M201 X1000 Y1000
M204 P1000 T1000
G1 F1500
G1 X109.580 Y118.674 E8.21190
G1 X111.944 Y117.838 E8.42380
G1 X113.365 Y117.709 E8.54443
G1 X129.135 Y117.709 E9.87738
G1 X131.610 Y118.106 E10.08928
G1 X133.837 Y119.259 E10.30117
G1 X135.590 Y121.050 E10.51307
G1 X136.695 Y123.301 E10.72497
G1 X137.041 Y125.615 E10.92274
G1 X137.041 Y133.385 E11.57949
G1 X137.001 Y134.175 E11.64635
G1 X135.929 Y144.857 E12.55377
G1 X135.805 Y145.665 E12.62290
G1 X135.589 Y146.713 E12.71328
G1 X135.301 Y147.746 E12.80391
G1 X134.945 Y148.754 E12.89429
G1 X134.521 Y149.738 E12.98492
G1 X134.032 Y150.689 E13.07530
G1 X133.478 Y151.607 E13.16593
G1 X132.864 Y152.483 E13.25632
G1 X132.191 Y153.318 E13.34694
G1 X131.085 Y154.487 E13.48297
G1 X128.348 Y157.070 E13.80110
G1 X127.582 Y157.707 E13.88530
G1 X126.787 Y158.287 E13.96848
G1 X125.046 Y159.248 E14.13653
G1 X124.139 Y159.608 E14.21909
G1 X122.213 Y160.104 E14.38715
G1 X121.237 Y160.228 E14.47033
G1 X120.243 Y160.291 E14.55452
G1 X105.865 Y160.291 E15.76979
G1 X103.390 Y159.894 E15.98169
G1 X101.163 Y158.741 E16.19359
G1 X99.410 Y156.950 E16.40549
G1 X98.305 Y154.699 E16.61738
G1 X97.959 Y152.385 E16.81515
G1 X97.959 Y133.615 E18.40167
G1 X98.356 Y131.140 E18.61357
G1 X100.097 Y128.208 E18.90179
G1 X107.556 Y120.252 E19.82360
G1 X108.061 Y120.642 F6000.000
G1 F1500
G1 X109.972 Y119.185 E20.02674
G1 X113.365 Y118.344 E20.32222
G1 X129.135 Y118.344 E21.65517
G1 X131.505 Y118.742 E21.85831
G1 X133.617 Y119.890 E22.06146
G1 X135.238 Y121.664 E22.26461
G1 X136.193 Y123.870 E22.46776
G1 X136.406 Y125.615 E22.61638
G1 X136.406 Y133.385 E23.27314
G1 X136.369 Y134.112 E23.33462
G1 X135.296 Y144.793 E24.24204
G1 X135.183 Y145.537 E24.30562
G1 X134.967 Y146.584 E24.39600
G1 X134.702 Y147.534 E24.47934
G1 X134.346 Y148.542 E24.56973
G1 X133.956 Y149.448 E24.65307
G1 X133.467 Y150.399 E24.74346
G1 X132.957 Y151.243 E24.82680
G1 X132.344 Y152.119 E24.91719
G1 X131.725 Y152.887 E25.00053
G1 X130.649 Y154.025 E25.13292
G1 X127.912 Y156.608 E25.45105
G1 X127.207 Y157.194 E25.52848
G1 X126.412 Y157.774 E25.61166
G1 X124.812 Y158.657 E25.76621
G1 X123.904 Y159.018 E25.84877
G1 X122.133 Y159.474 E26.00332
G1 X121.157 Y159.598 E26.08650
G1 X120.243 Y159.656 E26.16393
G1 X105.865 Y159.656 E27.37920
G1 X103.495 Y159.258 E27.58234
G1 X101.383 Y158.110 E27.78549
G1 X99.762 Y156.336 E27.98864
G1 X98.807 Y154.130 E28.19179
G1 X98.594 Y152.385 E28.34041
G1 X98.594 Y133.615 E29.92693
G1 X98.992 Y131.245 E30.13008
G1 X100.561 Y128.642 E30.38694
G1 X108.020 Y120.686 E31.30875
G1 X108.524 Y121.077 F6000.000
G1 F1500
G1 X110.360 Y119.699 E31.50275
G1 X113.365 Y118.980 E31.76392
G1 X129.135 Y118.980 E33.09687
G1 X131.396 Y119.377 E33.29087
G1 X133.386 Y120.520 E33.48488
G1 X134.867 Y122.273 E33.67889
G1 X135.663 Y124.426 E33.87289
G1 X135.770 Y125.615 E33.97379
G1 X135.770 Y133.385 E34.63054
G1 X135.737 Y134.048 E34.68665
G1 X134.664 Y144.730 E35.59407
G1 X134.561 Y145.408 E35.65209
G1 X134.344 Y146.456 E35.74247
G1 X134.103 Y147.323 E35.81854
G1 X133.747 Y148.331 E35.90892
G1 X133.391 Y149.157 E35.98498
G1 X132.902 Y150.108 E36.07536
G1 X132.437 Y150.879 E36.15143
G1 X131.824 Y151.755 E36.24181
G1 X131.259 Y152.455 E36.31787
G1 X130.213 Y153.563 E36.44662
G1 X127.476 Y156.146 E36.76475
G1 X126.833 Y156.681 E36.83541
G1 X126.038 Y157.261 E36.91859
G1 X124.577 Y158.067 E37.05964
G1 X123.669 Y158.428 E37.14220
G1 X122.053 Y158.844 E37.28324
G1 X121.077 Y158.968 E37.36642
G1 X120.243 Y159.020 E37.43709
G1 X105.865 Y159.020 E38.65235
G1 X103.604 Y158.623 E38.84636
G1 X101.614 Y157.480 E39.04037
G1 X100.133 Y155.727 E39.23437
G1 X99.337 Y153.574 E39.42838
G1 X99.230 Y152.385 E39.52927
G1 X99.230 Y133.615 E41.11579
G1 X99.627 Y131.354 E41.30980
G1 X101.024 Y129.077 E41.53566
G1 X108.483 Y121.121 E42.45747
G1 F4800
G1 X110.360 Y119.699 E41.89830
G1 F4800
G1 X113.365 Y118.980 E41.16446
G1 F4800
G1 X129.135 Y118.980 E37.41909
G1 F4800
G1 X131.396 Y119.377 E36.87396
G1 F4800
G1 X133.386 Y120.520 E36.32883
G1 F4800
G1 X134.867 Y122.273 E35.78371
G1 F4800
G1 X135.663 Y124.426 E35.23858
G1 F4800
G1 X135.770 Y125.615 E34.95509
G1 F4800
G1 X135.770 Y126.026 E34.85747
G1 E34.45747 F1200.00000
G92 E0
G1 X113.717 Y149.967 F6000.000
G1 E8.00000 F1200.00000
M201 X500 Y500
M204 P500 T500
G1 F690
G1 X106.783 Y149.967 E8.58609
G1 X106.783 Y136.033 E9.76385
G1 X113.717 Y136.033 E10.34994
G1 X113.717 Y149.907 E11.52263
M201 X1000 Y1000
M204 P1000 T1000
G1 X113.778 Y150.362 F6000.000
G1 F4800
G1 X106.783 Y149.967 E9.87575
G1 F4800
G1 X106.783 Y136.033 E6.56642
G1 F4800
G1 X113.717 Y136.033 E4.91960
G1 F4800
G1 X113.717 Y140.231 E3.92263
G1 E3.52263 F1200.00000
G92 E0
G1 X126.512 Y131.762 F6000.000
G1 E8.00000 F1200.00000
M201 X500 Y500
M204 P500 T500
G1 F2250
G1 X126.512 Y142.941 E8.94487
G1 X126.451 Y143.847 E9.02161
G1 X126.279 Y144.678 E9.09335
G1 X125.997 Y145.478 E9.16509
G1 X125.608 Y146.233 E9.23683
G1 X125.122 Y146.928 E9.30857
G1 X124.505 Y147.595 E9.38531
G1 X121.883 Y150.070 E9.69012
G1 X121.336 Y150.469 E9.74726
G1 X120.811 Y150.677 E9.79505
G1 X120.140 Y150.762 E9.85219
G1 X114.988 Y150.762 E10.28772
G1 X114.988 Y145.941 E10.69527
G1 X115.289 Y145.876 E10.72129
G1 X115.351 Y146.014 E10.73405
G1 X116.269 Y147.151 E10.85761
G1 X117.444 Y148.021 E10.98117
G1 X118.800 Y148.566 E11.10473
G1 X120.250 Y148.752 E11.22829
G1 X121.700 Y148.566 E11.35185
G1 X123.056 Y148.021 E11.47541
G1 X124.231 Y147.151 E11.59897
G1 X125.149 Y146.014 E11.72253
G1 X125.751 Y144.681 E11.84609
G1 X125.997 Y143.240 E11.96965
G1 X125.872 Y141.784 E12.09321
G1 X125.384 Y140.406 E12.21677
G1 X124.988 Y139.821 E12.27645
G1 X124.988 Y127.238 E13.34007
G1 X127.512 Y127.238 E13.55346
G1 X127.512 Y131.762 E13.93591
G1 X126.572 Y131.762 E14.01536
M201 X1000 Y1000
M204 P1000 T1000
G1 F4800
G1 X126.512 Y142.941 E11.36039
G1 F4800
G1 X126.451 Y143.847 E11.14477
G1 F4800
G1 X126.279 Y144.678 E10.94319
G1 F4800
G1 X125.997 Y145.478 E10.74161
G1 F4800
G1 X125.608 Y146.233 E10.54003
G1 F4800
G1 X125.122 Y146.928 E10.33846
G1 F4800
G1 X124.505 Y147.595 E10.12283
G1 F4800
G1 X121.883 Y150.070 E9.26636
G1 F4800
G1 X121.336 Y150.469 E9.10580
G1 F4800
G1 X120.811 Y150.677 E8.97151
G1 F4800
G1 X120.140 Y150.762 E8.81096
G1 F4800
G1 X114.988 Y150.762 E7.58720
G1 F4800
G1 X114.988 Y145.941 E6.44205
G1 F4800
G1 X115.098 Y145.917 E6.41536
G1 E6.01536 F1200.00000
G92 E0
G1 X115.512 Y127.238 F6000.000
G1 E8.00000 F1200.00000
M201 X500 Y500
M204 P500 T500
G1 F690
G1 X115.512 Y139.821 E9.06361
G1 X115.257 Y140.198 E9.10209
G1 X114.988 Y140.115 E9.12591
G1 X114.988 Y127.238 E10.21440
G1 X115.452 Y127.238 E10.25368
M201 X1000 Y1000
M204 P1000 T1000
G1 F4800
G1 X115.512 Y139.821 E7.26506
G1 F4800
G1 X115.257 Y140.198 E7.15693
G1 F4800
G1 X114.988 Y140.115 E7.09001
G1 F4800
G1 X114.988 Y127.238 E4.03152
G1 F4800
G1 X115.452 Y127.238 E3.92116
G1 E2.25368 F1200.00000
G92 E0
G1 X114.352 Y134.602 F6000.000
G1 E8.00000 F1200.00000
M201 X500 Y500
M204 P500 T500
G1 F2250
G1 X114.352 Y126.602 E8.67619
G1 X116.148 Y126.602 E8.82794
G1 X116.148 Y140.016 E9.96173
G1 X115.688 Y140.695 E10.03101
G1 X115.571 Y141.024 E10.06056
G1 X115.331 Y141.024 E10.08087
G1 X115.143 Y143.213 E10.26659
G1 X115.362 Y144.494 E10.37639
G1 X115.896 Y145.678 E10.48619
G1 X116.712 Y146.689 E10.59599
G1 X117.756 Y147.462 E10.70579
G1 X118.961 Y147.946 E10.81559
G1 X120.250 Y148.111 E10.92539
G1 X121.539 Y147.946 E11.03519
G1 X122.744 Y147.462 E11.14499
G1 X123.788 Y146.689 E11.25479
G1 X124.604 Y145.678 E11.36459
G1 X125.138 Y144.494 E11.47439
G1 X125.357 Y143.213 E11.58419
G1 X125.246 Y141.919 E11.69399
G1 X124.812 Y140.695 E11.80379
G1 X124.352 Y140.016 E11.87307
G1 X124.352 Y126.602 E13.00686
G1 X128.148 Y126.602 E13.32766
G1 X128.148 Y132.398 E13.81751
G1 X127.148 Y132.398 E13.90203
G1 X127.148 Y142.963 E14.79502
G1 X127.082 Y143.933 E14.87723
G1 X126.893 Y144.849 E14.95627
G1 X126.581 Y145.731 E15.03531
G1 X126.154 Y146.562 E15.11435
G1 X125.617 Y147.328 E15.19339
G1 X124.957 Y148.042 E15.27560
G1 X122.289 Y150.560 E15.58563
G1 X121.646 Y151.029 E15.65296
G1 X120.971 Y151.298 E15.71437
G1 X120.180 Y151.398 E15.78171
G1 X106.852 Y151.398 E16.90825
G1 X106.852 Y150.602 E16.97548
G1 X114.352 Y150.602 E17.60941
G1 X114.352 Y135.398 E18.89457
G1 X106.852 Y135.398 E19.52851
G1 X106.852 Y134.602 E19.59573
G1 X114.292 Y134.602 E20.22459
M201 X1000 Y1000
M204 P1000 T1000
G1 X113.717 Y133.967 F6000.000
M201 X500 Y500
M204 P500 T500
G1 F690
G1 X113.717 Y125.967 E20.90079
G1 X116.783 Y125.967 E21.15994
G1 X116.783 Y140.211 E22.36390
G1 X116.260 Y140.984 E22.44278
G1 X116.020 Y141.660 E22.50339
G1 X115.914 Y141.660 E22.51235
G1 X115.783 Y143.187 E22.64191
G1 X115.974 Y144.307 E22.73795
G1 X116.442 Y145.342 E22.83399
G1 X117.155 Y146.227 E22.93003
G1 X118.069 Y146.903 E23.02607
G1 X119.123 Y147.326 E23.12211
G1 X120.250 Y147.471 E23.21815
G1 X121.377 Y147.326 E23.31419
G1 X122.431 Y146.903 E23.41024
G1 X123.345 Y146.227 E23.50628
G1 X124.058 Y145.342 E23.60232
G1 X124.526 Y144.307 E23.69836
G1 X124.717 Y143.187 E23.79440
G1 X124.620 Y142.055 E23.89044
G1 X124.240 Y140.984 E23.98648
G1 X123.717 Y140.211 E24.06535
G1 X123.717 Y125.967 E25.26932
G1 X128.783 Y125.967 E25.69752
G1 X128.783 Y133.033 E26.29476
G1 X127.783 Y133.033 E26.37929
G1 X127.783 Y142.984 E27.22040
G1 X127.713 Y144.019 E27.30809
G1 X127.506 Y145.020 E27.39442
G1 X127.166 Y145.983 E27.48076
G1 X126.699 Y146.891 E27.56710
G1 X126.113 Y147.728 E27.65344
G1 X125.409 Y148.489 E27.74113
G1 X122.696 Y151.049 E28.05637
G1 X121.955 Y151.590 E28.13390
G1 X121.131 Y151.918 E28.20892
G1 X120.221 Y152.033 E28.28645
G1 X106.217 Y152.033 E29.47009
G1 X106.217 Y133.967 E30.99710
G1 X113.657 Y133.967 E31.62596
M201 X1000 Y1000
M204 P1000 T1000
G1 X114.087 Y133.814 F6000.000
G1 X114.670 Y135.000 F6000.000
G1 F1200
G1 X107.170 Y135.000 E31.71711
G1 F4800
G1 X114.670 Y135.000 E29.93586
G1 E23.71711 F1200.00000
G92 E0
G1 X114.953 Y140.602 F6000.000
G1 E8.00000 F1200.00000
G1 F1200
G1 X114.866 Y140.615 E8.00333
G1 X114.855 Y140.691 E8.00621
G1 X114.812 Y141.703 E8.04456
G1 F1200
G1 X114.768 Y142.714 E8.07351
G1 F1200
G1 X114.747 Y143.220 E8.08214
G1 X114.771 Y143.516 E8.08719
G1 F1200
G1 X114.817 Y144.068 E8.10041
G1 F1200
G1 X114.864 Y144.620 E8.12053
G1 F1200
G1 X115.013 Y145.610 E8.16512
G1 X115.305 Y146.671 F6000.000
G1 F1200
G1 X115.483 Y146.841 E8.17013
G1 F1200
G1 X115.838 Y147.181 E8.17417
G1 X115.623 Y147.946 F6000.000
M201 X1500 Y1500
M204 P1500 T1500
G1 F2550
G1 X115.623 Y148.877 E8.25572
G1 X116.435 Y148.065 E8.35635
G1 X116.970 Y148.461 E8.41466
G1 X115.623 Y149.808 E8.58157
G1 X115.623 Y150.127 E8.60947
G1 X116.235 Y150.127 E8.66311
G1 X117.596 Y148.767 E8.83161
G1 X118.260 Y149.034 E8.89430
G1 X117.166 Y150.127 E9.02973
G1 X118.097 Y150.127 E9.11128
G1 X118.993 Y149.231 E9.22222
G1 X119.818 Y149.337 E9.29510
G1 X119.029 Y150.127 E9.39295
G1 X119.960 Y150.127 E9.47449
G1 X120.760 Y149.327 E9.57358
G1 X121.079 Y149.286 E9.60179
G1 X121.333 Y149.684 E9.64318
M201 X1000 Y1000
M204 P1000 T1000
G1 X121.802 Y149.237 F6000.000
G1 F1200
G1 X122.082 Y149.058 E9.66346
G1 F1200
G1 X122.361 Y148.879 E9.67939
G1 F1200
G1 X122.641 Y148.700 E9.69097
G1 F1200
G1 X122.921 Y148.521 E9.69819
G1 F1200
G1 X123.200 Y148.342 E9.70107
G1 F4800
G1 X122.921 Y148.521 E9.62221
G1 E1.70107 F1200.00000
G92 E0
G1 X125.750 Y140.489 F6000.000
G1 E8.00000 F1200.00000
G1 F1200
G1 X125.750 Y131.445 E8.98748
G1 X126.877 Y131.127 F6000.000
M201 X1500 Y1500
M204 P1500 T1500
G1 F2550
G1 X126.877 Y130.225 E9.06396
G1 X126.293 Y130.809 E9.13401
G1 X125.623 Y130.809 E9.19084
G1 X125.623 Y130.578 E9.21048
G1 X126.877 Y129.324 E9.36090
G1 X126.877 Y128.422 E9.43737
G1 X125.623 Y129.676 E9.58779
G1 X125.623 Y128.775 E9.66426
G1 X126.525 Y127.873 E9.77242
G1 X125.623 Y127.873 E9.84888
M201 X1000 Y1000
M204 P1000 T1000
G1 F4800
G1 X126.525 Y127.873 E9.63476
G1 F4800
G1 X125.623 Y128.775 E9.33189
G1 F4800
G1 X125.623 Y129.676 E9.11777
G1 F4800
G1 X126.877 Y128.422 E8.69655
G1 F4800
G1 X126.877 Y129.324 E8.48243
G1 F4800
G1 X125.623 Y130.578 E8.06121
G1 F4800
G1 X125.623 Y130.809 E8.00622
G1 F4800
G1 X126.293 Y130.809 E7.84709
G1 F4800
G1 X126.877 Y130.225 E7.65092
G1 F4800
G1 X126.877 Y131.127 E7.43676
G1 E1.84888 F1200.00000
G92 E0
G1 X115.371 Y140.638 F6000.000
G1 E8.00000 F1200.00000
G1 F1200
G1 X115.040 Y140.588 E8.00586
G1 F1200
G1 X114.953 Y140.602 E8.00828
G1 F4800
G1 X115.040 Y140.588 E7.98742
G1 E0.00828 F1200.00000
G92 E0
G1 X114.670 Y151.000 F6000.000
G1 E8.00000 F1200.00000
G1 F1200
G1 X107.170 Y151.000 E8.09115
M106 S232.05
G1 F4800
G1 X114.670 Y151.000 E6.30990
G1 E0.09115 F1200.00000
G92 E0
G1 Z0.640 F6000.000
M117 capa 1 en Z=0.64mm
;AFTERLIFT
G1 X113.573 Y136.177 F6000.000
G1 E8.00000 F1200.00000
M201 X500 Y500
M204 P500 T500
G1 F1380
G1 X113.573 Y149.823 E8.63056
G1 X106.927 Y149.823 E8.93767
G1 X106.927 Y136.177 E9.56823
G1 X113.513 Y136.177 E9.87256
M201 X1000 Y1000
M204 P1000 T1000
G1 X113.946 Y136.031 F6000.000
G1 X114.412 Y135.338 F6000.000
M201 X500 Y500
M204 P500 T500
G1 F4500
G1 X106.912 Y135.338 E10.31491
G1 X106.912 Y134.662 E10.35482
G1 X114.412 Y134.662 E10.79718
G1 X114.412 Y126.662 E11.26902
G1 X116.088 Y126.662 E11.36791
G1 X116.088 Y139.998 E12.15449
G1 X115.635 Y140.668 E12.20221
G1 X115.196 Y141.907 E12.27972
G1 X115.083 Y143.216 E12.35724
G1 X115.305 Y144.511 E12.43475
G1 X115.845 Y145.709 E12.51227
G1 X116.671 Y146.732 E12.58978
G1 X117.727 Y147.514 E12.66730
G1 X118.946 Y148.004 E12.74481
G1 X120.250 Y148.171 E12.82232
G1 X121.554 Y148.004 E12.89984
G1 X122.773 Y147.514 E12.97735
G1 X123.829 Y146.732 E13.05487
G1 X124.655 Y145.709 E13.13238
G1 X125.195 Y144.511 E13.20990
G1 X125.417 Y143.216 E13.28741
G1 X125.304 Y141.907 E13.36492
G1 X124.865 Y140.668 E13.44244
G1 X124.412 Y139.998 E13.49016
G1 X124.412 Y126.662 E14.27673
G1 X128.088 Y126.662 E14.49359
G1 X128.088 Y132.338 E14.82840
G1 X127.088 Y132.338 E14.88738
G1 X127.088 Y142.961 E15.51389
G1 X127.023 Y143.925 E15.57089
G1 X126.835 Y144.833 E15.62557
G1 X126.527 Y145.707 E15.68025
G1 X126.103 Y146.531 E15.73493
G1 X125.571 Y147.291 E15.78961
G1 X124.915 Y148.000 E15.84662
G1 X122.251 Y150.514 E16.06261
G1 X121.617 Y150.977 E16.10893
G1 X120.956 Y151.240 E16.15089
G1 X120.177 Y151.338 E16.19722
G1 X106.912 Y151.338 E16.97959
G1 X106.912 Y150.662 E17.01951
G1 X114.412 Y150.662 E17.46186
G1 X114.412 Y135.398 E18.36210
M201 X1000 Y1000
M204 P1000 T1000
G1 X113.968 Y135.782 F6000.000
M201 X500 Y500
M204 P500 T500
G1 F4500
G1 X106.468 Y135.782 E18.80445
G1 X106.468 Y134.218 E18.89666
G1 X113.968 Y134.218 E19.33901
G1 X113.968 Y126.218 E19.81086
G1 X116.532 Y126.218 E19.96204
G1 X116.532 Y140.134 E20.78279
G1 X116.034 Y140.869 E20.83518
G1 X115.633 Y142.001 E20.90599
G1 X115.530 Y143.197 E20.97681
G1 X115.732 Y144.381 E21.04762
G1 X116.226 Y145.475 E21.11844
G1 X116.980 Y146.410 E21.18925
G1 X117.945 Y147.124 E21.26007
G1 X119.059 Y147.572 E21.33088
G1 X120.250 Y147.724 E21.40170
G1 X121.441 Y147.572 E21.47251
G1 X122.555 Y147.124 E21.54333
G1 X123.520 Y146.410 E21.61414
G1 X124.274 Y145.475 E21.68496
G1 X124.768 Y144.381 E21.75577
G1 X124.970 Y143.197 E21.82658
G1 X124.867 Y142.001 E21.89740
G1 X124.466 Y140.869 E21.96821
G1 X123.968 Y140.134 E22.02060
G1 X123.968 Y126.218 E22.84135
